X: 282
T: Litania de B.V. Mariae – Salus infirmorum
C: Ferdinand Simon Lechleitner
L: 1/8
M: C
N: Derived from pl-sa--288-a-vii-48--005_lechleitner-ferdinand-simon--litania-de-b-v-mariae-salus-infirmorum.krn
V: 1 clef=treble
V: 2 clef=treble
V: 3
V: 4 clef=alto
V: 5 clef=tenor
V: 6 clef=bass
V: 7 clef=treble
V: 8 clef=treble
V: 9 clef=bass
K: Bb
[V:1] z32 | 
[V:2] z32 | 
[V:3] d2>d2c2c2 | 
[V:4] G2>G2 GA/G/^F2 | 
[V:5] B,2>B,2E2C2 | 
[V:6] G,2>G,2A,2A,2 | 
[V:7] z32 | 
[V:8] z32 | 
[V:9] G,G,G,G, A,A,A,A, | 
[V:1]  | 
[V:2]  | 
[V:3] B2B B c c/ c/ c c | 
[V:4] G2G D G G/ G/ ^F F | 
[V:5] D2D D C C/ C/ A, A, | 
[V:6] B,2B, B, A, A,/ A,/ D, D, | 
[V:7]  | 
[V:8]  | 
[V:9] B,B,B,B, A,A, D,D, | 
[V:1]  | 
[V:2]  | 
[V:3] Bc dc/B/A2A A | 
[V:4] G4G/^F/ !breath!F F F | 
[V:5] B,2>E2D2D D | 
[V:6] G,,A,,B,,C,D,2z2 | 
[V:7]  | 
[V:8]  | 
[V:9] G,,A,,B,,C,D,2z2 | 
[V:1]  | 
[V:2]  | 
[V:3] B/A/ A _A AG2G c | 
[V:4] G/^F/ F =F FE2E G | 
[V:5] D D D DC2C C | 
[V:6] z2=B,, B,, C, C, z C, | 
[V:7]  | 
[V:8]  | 
[V:9] z2=B,,B,, C,C,C,C, | 
[V:1] z32 | 
[V:2] z32 | 
[V:3] e e/ e/ e e/ e/ d d d d | 
[V:4] F F/ F/ F F/ F/ F !breath!F F F | 
[V:5] C C/ C/ C C/ C/ B, B, B, B, | 
[V:6] A,, A,,/ A,,/ A,, A,,/ A,,/ B,, B,, D, D, | 
[V:7] z32 | 
[V:8] z32 | 
[V:9] A,,A,,A,,A,, B,,B,, D,D, | 
[V:1]  | 
[V:2]  | 
[V:3] B2B B Bc/B/A2 | 
[V:4] GE F GC2F2 | 
[V:5] E2B, CC4 | 
[V:6] E,2D, =E,F,2F,,2 | 
[V:7]  | 
[V:8]  | 
[V:9] E,E, D,=E, F,F, F,,F,, | 
[V:1]  | 
[V:2]  | 
[V:3] B2F2_G2F2 | 
[V:4] F2D2E2D2 | 
[V:5] D2B,2B,2B,2 | 
[V:6] !breath!B,,2B,,2B,,2B,,2 | 
[V:7]  | 
[V:8]  | 
[V:9] B,,2z2z4 | 
[V:1]  |]  
[V:2]  |]  
[V:3] =G3A/G/F4 |]  
[V:4] E3F/E/D4 |]  
[V:5] B,4B,4 |]  
[V:6] B,,4B,,4 |]  
[V:7]  |]  
[V:8]  |]  
[V:9] z4B,,4 |]  

